X: 141005
T: JUDY BRALLAGHAN. (or THE GREEN FIELDS OF AMERICA)
N: AKA "Star of the County Down"
Q: "Irish Reel."
R: Reel.
%R: reel
B: James Kerr "Merry Melodies" v.1 p.41 s.0 #5
Z: 2016 John Chambers <jc:trillian.mit.edu>
M: C
L: 1/8
K: G
uB2 |\
c2dc B2cB | AGAB AGEF | GAGE DEGB | AGAB AGEB |\
ccec BBdB | AGAB AGEF | GAGE DEGB | AGAB G2 |]
uD2 |\
GABc d2ef | gfge dBGB | c2ec B2dB | AGAB (AG)E2 |\
gage dBGB | AGAB AGEF | GAGE DEGB | AGAB G2 |]

%%sep 1 1 500
%%sep 1 1 500

